;FLAVOR:UltiGCode
;TIME:395
;MATERIAL:1307
;MATERIAL2:0
;NOZZLE_DIAMETER:0.8
;Generated with Cura_SteamEngine master

;LAYER_COUNT:13
;LAYER:0
M107
G0 F5400 X94.726 Y96.357 Z0.53
;TYPE:SKIRT
G1 F1800 X95.41 Y95.803 E0.32656
G1 X96.175 Y95.25 E0.67676
G1 X96.848 Y94.813 E0.97446
G1 X97.635 Y94.412 E1.30216
G1 X98.492 Y94.033 E1.64981
G1 X99.241 Y93.745 E1.94752
G1 X100.087 Y93.518 E2.27249
G1 X101.012 Y93.323 E2.62321
G1 X101.805 Y93.197 E2.9211
G1 X102.699 Y93.15 E3.25323
G1 X102.896 Y93.151 E3.32632
G1 X103.259 Y92.86 E3.49893
G1 X104.108 Y92.254 E3.88591
G1 X104.784 Y91.821 E4.18375
G1 X105.567 Y91.427 E4.50894
G1 X106.523 Y91.01 E4.89589
G1 X107.273 Y90.727 E5.19329
G1 X108.137 Y90.5 E5.52472
G1 X109.165 Y90.291 E5.91391
G1 X109.958 Y90.171 E6.21146
G1 X110.831 Y90.13 E6.5357
G1 X111.871 Y90.138 E6.92155
G1 X112.672 Y90.184 E7.21921
G1 X113.55 Y90.328 E7.5493
G1 X114.575 Y90.555 E7.93879
G1 X115.348 Y90.768 E8.23626
G1 X116.175 Y91.091 E8.56565
G1 X117.122 Y91.523 E8.95182
G1 X117.834 Y91.892 E9.24933
G1 X118.558 Y92.368 E9.57079
G1 X119.403 Y92.991 E9.96028
G1 X120.024 Y93.498 E10.2577
G1 X120.658 Y94.139 E10.59219
G1 X121.35 Y94.922 E10.97987
G1 X121.74 Y95.41 E11.21163
G1 X122.364 Y95.563 E11.44999
G1 X123.461 Y95.896 E11.87532
G1 X124.216 Y96.167 E12.17292
G1 X125.018 Y96.554 E12.50329
G1 X126.029 Y97.113 E12.93189
G1 X126.711 Y97.536 E13.22963
G1 X127.396 Y98.066 E13.55095
G1 X128.262 Y98.814 E13.97549
G1 X128.842 Y99.368 E14.27306
G1 X129.421 Y100.051 E14.60525
G1 X130.115 Y100.969 E15.0322
G1 X130.567 Y101.633 E15.3302
G1 X130.98 Y102.401 E15.65372
G1 X131.47 Y103.444 E16.08125
G1 X131.775 Y104.186 E16.37888
G1 X132.024 Y105.042 E16.70962
G1 X132.284 Y106.159 E17.1351
G1 X132.427 Y106.948 E17.43259
G1 X132.493 Y107.83 E17.76073
G1 X132.515 Y108.98 E18.18745
G1 X132.49 Y109.782 E18.48514
G1 X132.371 Y110.656 E18.81239
G1 X132.153 Y111.788 E19.24007
G1 X131.962 Y112.568 E19.538
G1 X131.668 Y113.388 E19.86119
G1 X131.222 Y114.448 E20.28784
G1 X130.874 Y115.171 E20.58553
G1 X130.395 Y115.944 E20.92291
G1 X130.116 Y116.343 E21.10354
G1 X130.211 Y116.849 E21.29454
G1 X130.32 Y117.644 E21.59225
G1 X130.348 Y118.532 E21.92186
G1 X130.318 Y119.786 E22.38722
G1 X130.259 Y120.586 E22.68483
G1 X130.1 Y121.46 E23.01441
G1 X129.81 Y122.676 E23.47819
G1 X129.586 Y123.447 E23.77606
G1 X129.253 Y124.26 E24.10201
G1 X128.714 Y125.396 E24.5685
G1 X128.334 Y126.103 E24.86628
G1 X127.843 Y126.825 E25.19021
G1 X127.083 Y127.822 E25.65531
G1 X126.566 Y128.435 E25.95282
G1 X125.923 Y129.052 E26.28344
G1 X124.973 Y129.867 E26.74781
G1 X124.338 Y130.358 E27.04561
G1 X123.587 Y130.823 E27.37332
G1 X122.482 Y131.426 E27.84034
G1 X121.76 Y131.775 E28.13785
G1 X120.935 Y132.072 E28.46316
G1 X119.736 Y132.431 E28.9275
G1 X118.957 Y132.622 E29.22507
G1 X118.075 Y132.743 E29.55535
G1 X116.825 Y132.844 E30.02062
G1 X116.023 Y132.869 E30.3183
G1 X115.145 Y132.804 E30.64493
G1 X113.9 Y132.643 E31.11067
G1 X113.11 Y132.5 E31.40853
G1 X112.26 Y132.253 E31.73692
G1 X111.075 Y131.836 E32.20298
G1 X110.332 Y131.532 E32.50081
G1 X109.554 Y131.114 E32.82847
G1 X108.487 Y130.463 E33.29219
G1 X107.824 Y130.011 E33.58989
G1 X107.153 Y129.444 E33.91581
G1 X106.238 Y128.58 E34.3827
G1 X105.683 Y128.001 E34.68025
G1 X105.144 Y127.306 E35.00655
G1 X104.433 Y126.278 E35.47027
G1 X104.01 Y125.596 E35.76801
G1 X103.859 Y125.282 E35.89728
G1 X103.567 Y125.144 E36.0171
G1 X103.237 Y125.181 E36.14029
G1 X102.353 Y125.186 E36.46826
G1 X101.517 Y125.145 E36.77879
G1 X100.718 Y125.066 E37.07667
G1 X99.84 Y124.884 E37.40933
G1 X99.036 Y124.67 E37.718
G1 X98.272 Y124.425 E38.01566
G1 X97.468 Y124.072 E38.34143
G1 X96.722 Y123.694 E38.6517
G1 X96.026 Y123.296 E38.94915
G1 X95.311 Y122.782 E39.27584
G1 X94.658 Y122.256 E39.58693
G1 X94.059 Y121.722 E39.88464
G1 X93.464 Y121.068 E40.21267
G1 X92.935 Y120.418 E40.52359
G1 X92.461 Y119.772 E40.82085
G1 X92.018 Y119.014 E41.14657
G1 X91.636 Y118.27 E41.45685
G1 X91.305 Y117.539 E41.75456
G1 X91.026 Y116.693 E42.08505
G1 X90.809 Y115.89 E42.39365
G1 X90.638 Y115.106 E42.69136
G1 X90.542 Y114.233 E43.01719
G1 X90.496 Y113.398 E43.32745
G1 X90.492 Y112.596 E43.62499
G1 X90.579 Y111.724 E43.95011
G1 X90.707 Y110.897 E44.26058
G1 X90.869 Y110.111 E44.55832
G1 X91.132 Y109.285 E44.87992
G1 X91.065 Y109.077 E44.96099
G1 X90.857 Y108.302 E45.25869
G1 X90.718 Y107.425 E45.58812
G1 X90.622 Y106.49 E45.93683
G1 X90.58 Y105.689 E46.23441
G1 X90.626 Y104.808 E46.56171
G1 X90.727 Y103.868 E46.91245
G1 X90.852 Y103.076 E47.20992
G1 X91.084 Y102.213 E47.54146
G1 X91.378 Y101.319 E47.89061
G1 X91.666 Y100.571 E48.18798
G1 X92.062 Y99.794 E48.51152
G1 X92.532 Y98.984 E48.85896
G1 X92.969 Y98.311 E49.15666
G1 X93.527 Y97.621 E49.48588
G1 X94.158 Y96.924 E49.8347
G1 X94.726 Y96.357 E50.13245
G0 F5400 X95.221 Y96.853
G1 F1800 X95.82 Y96.37 E50.41792
G1 X96.585 Y95.817 E50.76813
G1 X97.229 Y95.401 E51.05256
G1 X97.918 Y95.052 E51.33911
G1 X98.775 Y94.673 E51.68676
G1 X99.492 Y94.4 E51.97139
G1 X100.232 Y94.203 E52.2555
G1 X101.157 Y94.008 E52.60621
G1 X101.914 Y93.889 E52.89051
G1 X102.697 Y93.85 E53.18136
G1 X103.136 Y93.851 E53.34423
G1 X103.666 Y93.43 E53.59535
G1 X104.515 Y92.824 E53.98233
G1 X105.161 Y92.411 E54.26679
G1 X105.846 Y92.069 E54.55084
G1 X106.802 Y91.652 E54.93779
G1 X107.52 Y91.383 E55.22225
G1 X108.277 Y91.186 E55.51245
G1 X109.305 Y90.977 E55.90164
G1 X110.063 Y90.864 E56.18597
G1 X110.826 Y90.83 E56.46932
G1 X111.866 Y90.838 E56.85517
G1 X112.631 Y90.884 E57.1395
G1 X113.398 Y91.012 E57.42799
G1 X114.423 Y91.239 E57.81748
G1 X115.162 Y91.443 E58.1019
G1 X115.884 Y91.728 E58.38988
G1 X116.831 Y92.16 E58.77605
G1 X117.511 Y92.514 E59.06047
G1 X118.143 Y92.931 E59.34138
G1 X118.988 Y93.554 E59.73087
G1 X119.58 Y94.041 E60.01526
G1 X120.133 Y94.603 E60.30778
G1 X120.825 Y95.386 E60.69546
G1 X121.302 Y95.986 E60.97983
G1 X121.335 Y96.037 E61.00237
G1 X121.411 Y96.048 E61.03086
G1 X122.161 Y96.233 E61.31745
G1 X123.258 Y96.566 E61.74278
G1 X123.979 Y96.827 E62.02725
G1 X124.68 Y97.167 E62.3163
G1 X125.691 Y97.726 E62.7449
G1 X126.341 Y98.131 E63.02903
G1 X126.938 Y98.596 E63.30977
G1 X127.804 Y99.344 E63.73431
G1 X128.358 Y99.874 E64.01876
G1 X128.863 Y100.474 E64.30971
G1 X129.557 Y101.392 E64.73666
G1 X129.987 Y102.026 E65.02087
G1 X130.346 Y102.699 E65.30385
G1 X130.836 Y103.742 E65.73138
G1 X131.126 Y104.452 E66.01592
G1 X131.343 Y105.201 E66.30522
G1 X131.603 Y106.318 E66.73071
G1 X131.737 Y107.072 E67.01483
G1 X131.793 Y107.843 E67.30162
G1 X131.815 Y108.993 E67.72835
G1 X131.789 Y109.76 E68.01307
G1 X131.683 Y110.524 E68.29923
G1 X131.465 Y111.656 E68.72692
G1 X131.281 Y112.4 E69.01126
G1 X131.023 Y113.117 E69.29396
G1 X130.577 Y114.177 E69.72061
G1 X130.243 Y114.867 E70.00502
G1 X129.822 Y115.543 E70.30047
G1 X129.373 Y116.184 E70.59082
G1 X129.523 Y116.978 E70.89061
G1 X129.625 Y117.738 E71.1751
G1 X129.648 Y118.515 E71.46349
G1 X129.618 Y119.769 E71.92886
G1 X129.56 Y120.533 E72.21312
G1 X129.419 Y121.298 E72.50171
G1 X129.129 Y122.514 E72.9655
G1 X128.913 Y123.249 E73.24972
G1 X128.62 Y123.96 E73.53502
G1 X128.081 Y125.096 E74.00151
G1 X127.717 Y125.77 E74.2857
G1 X127.286 Y126.401 E74.5692
G1 X126.526 Y127.398 E75.0343
G1 X126.03 Y127.982 E75.31856
G1 X125.467 Y128.52 E75.60747
G1 X124.517 Y129.335 E76.07184
G1 X123.91 Y129.804 E76.35643
G1 X123.252 Y130.209 E76.64308
G1 X122.147 Y130.812 E77.1101
G1 X121.456 Y131.143 E77.39436
G1 X120.734 Y131.401 E77.67881
G1 X119.535 Y131.76 E78.14315
G1 X118.79 Y131.941 E78.42759
G1 X118.019 Y132.045 E78.71622
G1 X116.769 Y132.146 E79.18148
G1 X116.003 Y132.168 E79.46578
G1 X115.234 Y132.109 E79.75192
G1 X113.989 Y131.948 E80.21766
G1 X113.235 Y131.81 E80.50204
G1 X112.492 Y131.592 E80.78931
G1 X111.307 Y131.175 E81.25538
G1 X110.598 Y130.883 E81.53985
G1 X109.919 Y130.516 E81.8262
G1 X108.852 Y129.865 E82.28992
G1 X108.219 Y129.433 E82.57424
G1 X107.634 Y128.935 E82.85927
G1 X106.719 Y128.071 E83.32615
G1 X106.19 Y127.516 E83.61061
G1 X105.72 Y126.908 E83.89572
G1 X105.009 Y125.88 E84.35944
G1 X104.606 Y125.228 E84.64381
G1 X104.377 Y124.751 E84.84011
G1 X104.314 Y124.725 E84.8654
G1 X103.688 Y124.427 E85.12261
G1 X103.161 Y124.484 E85.31927
G1 X102.387 Y124.487 E85.60643
G1 X101.551 Y124.446 E85.91696
G1 X100.788 Y124.369 E86.20147
G1 X100.02 Y124.208 E86.49259
G1 X99.216 Y123.994 E86.80126
G1 X98.487 Y123.758 E87.08554
G1 X97.785 Y123.447 E87.37039
G1 X97.039 Y123.069 E87.68066
G1 X96.374 Y122.688 E87.965
G1 X95.75 Y122.237 E88.25064
G1 X95.097 Y121.711 E88.56172
G1 X94.526 Y121.2 E88.84601
G1 X94.007 Y120.626 E89.1331
G1 X93.478 Y119.976 E89.44402
G1 X93.026 Y119.358 E89.72808
G1 X92.64 Y118.694 E90.01303
G1 X92.258 Y117.95 E90.32331
G1 X91.944 Y117.251 E90.6076
G1 X91.702 Y116.51 E90.8968
G1 X91.485 Y115.707 E91.2054
G1 X91.323 Y114.958 E91.4897
G1 X91.241 Y114.194 E91.77478
G1 X91.195 Y113.359 E92.08503
G1 X91.193 Y112.593 E92.36922
G1 X91.27 Y111.831 E92.65336
G1 X91.398 Y111.004 E92.96383
G1 X91.555 Y110.253 E93.24847
G1 X91.793 Y109.513 E93.53686
G1 X91.874 Y109.301 E93.62106
G1 X91.732 Y108.862 E93.79224
G1 X91.534 Y108.121 E94.07679
G1 X91.414 Y107.354 E94.36481
G1 X91.318 Y106.419 E94.71352
G1 X91.28 Y105.653 E94.99806
G1 X91.322 Y104.883 E95.28415
G1 X91.423 Y103.943 E95.6349
G1 X91.545 Y103.186 E95.91937
G1 X91.749 Y102.432 E96.20916
G1 X92.043 Y101.538 E96.55831
G1 X92.32 Y100.823 E96.84279
G1 X92.668 Y100.145 E97.12552
G1 X93.138 Y99.335 E97.47296
G1 X93.556 Y98.693 E97.75718
G1 X94.046 Y98.091 E98.04515
G1 X94.677 Y97.394 E98.39396
G1 X95.221 Y96.853 E98.6786
G0 F5400 X95.714 Y97.351
G1 F1800 X96.23 Y96.938 E98.9238
G1 X96.995 Y96.385 E99.27401
G1 X97.609 Y95.991 E99.54467
G1 X98.201 Y95.692 E99.79072
G1 X99.058 Y95.313 E100.13838
G1 X99.74 Y95.055 E100.4089
G1 X100.376 Y94.888 E100.65285
G1 X101.301 Y94.693 E101.00357
G1 X102.022 Y94.582 E101.27421
G1 X102.694 Y94.55 E101.52381
G1 X103.409 Y94.552 E101.78907
G1 X103.557 Y94.407 E101.86594
G1 X104.073 Y93.999 E102.10999
G1 X104.922 Y93.393 E102.49698
G1 X105.537 Y93.003 E102.76715
G1 X106.126 Y92.711 E103.01105
G1 X107.082 Y92.294 E103.398
G1 X107.766 Y92.039 E103.66882
G1 X108.416 Y91.872 E103.91781
G1 X109.444 Y91.663 E104.307
G1 X110.165 Y91.557 E104.57736
G1 X110.82 Y91.53 E104.82057
G1 X111.86 Y91.538 E105.20642
G1 X112.588 Y91.584 E105.47705
G1 X113.247 Y91.695 E105.72498
G1 X114.272 Y91.922 E106.11447
G1 X114.974 Y92.119 E106.38498
G1 X115.594 Y92.365 E106.63244
G1 X116.541 Y92.797 E107.01861
G1 X117.187 Y93.135 E107.2891
G1 X117.727 Y93.494 E107.52967
G1 X118.572 Y94.117 E107.91916
G1 X119.135 Y94.582 E108.19006
G1 X119.609 Y95.066 E108.4414
G1 X120.301 Y95.849 E108.82908
G1 X120.753 Y96.421 E109.09955
G1 X120.921 Y96.686 E109.21596
G1 X121.314 Y96.742 E109.36323
G1 X121.958 Y96.903 E109.60951
G1 X123.055 Y97.236 E110.03483
G1 X123.74 Y97.485 E110.30524
G1 X124.341 Y97.779 E110.55346
G1 X125.352 Y98.338 E110.98206
G1 X125.97 Y98.726 E111.25278
G1 X126.481 Y99.125 E111.4933
G1 X127.347 Y99.873 E111.91785
G1 X127.872 Y100.38 E112.18862
G1 X128.305 Y100.896 E112.43853
G1 X128.999 Y101.814 E112.86548
G1 X129.406 Y102.419 E113.13599
G1 X129.713 Y102.996 E113.37847
G1 X130.203 Y104.039 E113.806
G1 X130.476 Y104.715 E114.07648
G1 X130.661 Y105.359 E114.32507
G1 X130.921 Y106.476 E114.75055
G1 X131.047 Y107.195 E115.02136
G1 X131.093 Y107.857 E115.26756
G1 X131.115 Y109.007 E115.69429
G1 X131.089 Y109.735 E115.96455
G1 X130.996 Y110.392 E116.21072
G1 X130.778 Y111.524 E116.63841
G1 X130.601 Y112.231 E116.9088
G1 X130.378 Y112.845 E117.15116
G1 X129.932 Y113.905 E117.57781
G1 X129.612 Y114.561 E117.8486
G1 X129.249 Y115.141 E118.10245
G1 X128.631 Y116.024 E118.5023
G1 X128.835 Y117.108 E118.91153
G1 X128.931 Y117.831 E119.18211
G1 X128.948 Y118.498 E119.42965
G1 X128.918 Y119.752 E119.89502
G1 X128.861 Y120.479 E120.16556
G1 X128.739 Y121.136 E120.41348
G1 X128.449 Y122.352 E120.87727
G1 X128.241 Y123.051 E121.14783
G1 X127.988 Y123.66 E121.39249
G1 X127.449 Y124.796 E121.85898
G1 X127.101 Y125.436 E122.12925
G1 X126.73 Y125.976 E122.37232
G1 X125.97 Y126.973 E122.83742
G1 X125.497 Y127.528 E123.10796
G1 X125.011 Y127.989 E123.35648
G1 X124.061 Y128.804 E123.82085
G1 X123.482 Y129.248 E124.09155
G1 X122.916 Y129.594 E124.33767
G1 X121.811 Y130.197 E124.80469
G1 X121.153 Y130.511 E125.07518
G1 X120.533 Y130.731 E125.31925
G1 X119.334 Y131.09 E125.78359
G1 X118.626 Y131.26 E126.05372
G1 X117.963 Y131.347 E126.30181
G1 X116.713 Y131.448 E126.76707
G1 X115.984 Y131.467 E127.03762
G1 X115.324 Y131.415 E127.28324
G1 X114.079 Y131.254 E127.74898
G1 X113.362 Y131.121 E128.01952
G1 X112.725 Y130.932 E128.26603
G1 X111.54 Y130.515 E128.73209
G1 X110.866 Y130.236 E129.00273
G1 X110.283 Y129.919 E129.24892
G1 X109.216 Y129.268 E129.71264
G1 X108.616 Y128.855 E129.98288
G1 X108.114 Y128.426 E130.22787
G1 X107.199 Y127.562 E130.69475
G1 X106.698 Y127.033 E130.96506
G1 X106.296 Y126.51 E131.20979
G1 X105.585 Y125.482 E131.67351
G1 X105.203 Y124.86 E131.94432
G1 X104.915 Y124.254 E132.19324
G1 X104.896 Y124.208 E132.21171
G1 X104.582 Y124.078 E132.33779
G1 X103.925 Y123.762 E132.60826
G1 X103.834 Y123.706 E132.64791
G1 X103.811 Y123.71 E132.65657
G1 X103.086 Y123.787 E132.92705
G1 X102.421 Y123.788 E133.17377
G1 X101.585 Y123.747 E133.4843
G1 X100.86 Y123.671 E133.75475
G1 X100.201 Y123.531 E134.00469
G1 X99.397 Y123.317 E134.31336
G1 X98.703 Y123.091 E134.58414
G1 X98.101 Y122.823 E134.82862
G1 X97.355 Y122.445 E135.13889
G1 X96.724 Y122.08 E135.40933
G1 X96.189 Y121.692 E135.65452
G1 X95.536 Y121.166 E135.9656
G1 X94.995 Y120.678 E136.23591
G1 X94.55 Y120.185 E136.4823
G1 X94.021 Y119.535 E136.79322
G1 X93.593 Y118.945 E137.06364
G1 X93.263 Y118.374 E137.30831
G1 X92.881 Y117.63 E137.61859
G1 X92.584 Y116.965 E137.8888
G1 X92.377 Y116.328 E138.13729
G1 X92.16 Y115.525 E138.44589
G1 X92.009 Y114.812 E138.71628
G1 X91.94 Y114.156 E138.961
G1 X91.894 Y113.321 E139.27125
G1 X91.894 Y112.592 E139.54171
G1 X91.962 Y111.938 E139.78565
G1 X92.09 Y111.111 E140.09612
G1 X92.241 Y110.398 E140.36651
G1 X92.447 Y109.762 E140.61454
G1 X92.615 Y109.32 E140.78996
G1 X92.398 Y108.646 E141.05266
G1 X92.212 Y107.941 E141.32316
G1 X92.111 Y107.282 E141.57051
G1 X92.015 Y106.347 E141.91922
G1 X91.98 Y105.619 E142.18962
G1 X92.018 Y104.958 E142.43525
G1 X92.119 Y104.018 E142.786
G1 X92.237 Y103.298 E143.05668
G1 X92.414 Y102.651 E143.30554
G1 X92.708 Y101.757 E143.65469
G1 X92.973 Y101.077 E143.92545
G1 X93.273 Y100.497 E144.16771
G1 X93.743 Y99.687 E144.51514
G1 X94.143 Y99.077 E144.78577
G1 X94.565 Y98.561 E145.03308
G1 X95.196 Y97.864 E145.38189
G1 X95.714 Y97.351 E145.65236
G0 F5400 X96.64 Y97.505
G1 F1800 X97.405 Y96.952 E146.00256
G1 X97.987 Y96.581 E146.25863
G1 X98.484 Y96.332 E146.46486
G1 X99.341 Y95.953 E146.81251
G1 X99.987 Y95.711 E147.06844
G1 X100.521 Y95.573 E147.27306
G1 X101.446 Y95.378 E147.62378
G1 X102.128 Y95.275 E147.87967
G1 X102.692 Y95.25 E148.08912
G1 X103.629 Y95.253 E148.43675
G1 X103.689 Y95.257 E148.45906
G1 X104.046 Y94.91 E148.64376
G1 X104.479 Y94.569 E148.84824
G1 X105.328 Y93.963 E149.23523
G1 X105.912 Y93.596 E149.49112
G1 X106.406 Y93.352 E149.69553
G1 X107.362 Y92.935 E150.08248
G1 X108.009 Y92.697 E150.33825
G1 X108.556 Y92.558 E150.54763
G1 X109.584 Y92.349 E150.93682
G1 X110.266 Y92.251 E151.19244
G1 X110.815 Y92.23 E151.39627
G1 X111.855 Y92.238 E151.78212
G1 X112.543 Y92.283 E152.03792
G1 X113.096 Y92.379 E152.24615
G1 X114.121 Y92.606 E152.63564
G1 X114.784 Y92.794 E152.89131
G1 X115.303 Y93.002 E153.09874
G1 X116.25 Y93.434 E153.48491
G1 X116.86 Y93.756 E153.74082
G1 X117.312 Y94.058 E153.94249
G1 X118.157 Y94.681 E154.33198
G1 X118.687 Y95.122 E154.58778
G1 X119.084 Y95.53 E154.79898
G1 X119.776 Y96.313 E155.18666
G1 X120.202 Y96.855 E155.44242
G1 X120.497 Y97.324 E155.64798
G1 X120.503 Y97.335 E155.65263
G1 X120.533 Y97.338 E155.66381
G1 X121.215 Y97.436 E155.91943
G1 X121.754 Y97.573 E156.12576
G1 X122.851 Y97.906 E156.55109
G1 X123.498 Y98.144 E156.80685
G1 X124.002 Y98.392 E157.01524
G1 X125.013 Y98.951 E157.44384
G1 X125.596 Y99.319 E157.69962
